X:1
T:Going On
T:Charles K. Langley
T:Going On
T:Public Domain
T:Public Domain
C:Charles K. Langley
Z:Public Domain
%%score ( 1 2 ) ( 3 4 )
L:1/8
M:4/4
K:Db
V:1 treble 
V:2 treble 
V:3 bass 
V:4 bass 
V:1
 A2 | !>![Fd]2 [Gd]>[Gd] !>![Fd]2 F>G | !>!A2 F2 D2 F>A | !>![Fd]2 !>![Gd]2 !>![Ad]2 !>![Ed]2 | %4
w: 1.~The|of the sun shall be quenched|And the stead- fast stars|the ran- somed shall|
w: 2.~As|that re- mem- ber and feel|We shall live when seas|rate be- ings, to|
w: 3.~From|ry to glo- ry our path|And from grace to per-|wide years of e-|
 [Ec]6 (EG) | !>![Fd]2 [Gd]>[Gd] [Fd]2 F>G | A2 F2 [Fd]2 [Ge]>[Fd] | [Ec]2 [CE]>[CE] [D=G] [DB]3 | %8
w: live in *|And they still shall be go-|Go- ing on, go- ing|still shall be go- ing|
w: love and *|We shall live, nev- er- more|Go- ing on, go- ing|still shall be go- ing|
w: ter- ni- *|We shall look on our dear|Go- ing on, go- ing|still shall be go- ing|
 (z2 ce [ca]2) ||"^Refrain" [GB]>[Gc] | [Fd]4- [Fd]2 [DF]>[EG] | [FA]4- [FA]2 [FA]2 | %12
w: |* For-|ev- * er and|aye, * through|
w: |* For-|ev- * er and|aye, * through|
w: |* For-|ev- * er and|aye, * through|
 [GB]2 [GB]>[GB] [Gc] [Fd]3 | [Ge]4- [Ge]2 [GA]2 | [Fd]2 [DF]>[EG] [FA]2 [FA]>[FA] | %15
w: e- ter- nal day, They|still * shall|be go- ing on. * *|
w: e- ter- nal day, They|still * shall|be go- ing on. * *|
w: e- ter- nal day, We|still * shall|be go- ing on. * *|
 [GB]2 [AB]2 [=Ge]2 [Gd]2 | [Ac]2 [Ac]>[Ac] [Gd] [Ge]3 | (F2 DG [Fd]2) |] %18
w: |||
w: |||
w: |||
V:2
 A2 | x6 F>G | A2 F2 D2 F>A | x8 | x6 A2 | x6 F>G | A2 F2 x4 | x8 | [CA]6 || x2 | x8 | x8 | x8 | %13
w: fires|at last,|be gone; But souls of||strength,|ing on.|on, They||on;|||||
w: souls|and thrill,|are dry; As sep- a-||will,|to die.|on, They||on;|||||
w: glo-|shall be,|fect grace; Through all the||ty,|Lord’s face.|on, We||on;|||||
 x8 | x8 | x8 | x8 | d4- x2 |] %18
w: |||||
w: |||||
w: |||||
V:3
 A,2 | !>![D,A,]2 [D,B,]>[D,__B,] !>![D,A,]2 F,>G, | !>!A,2 F,2 D,2 F,>A, | %3
w: ~|~ ~ ~ ~ ~ ~|~ ~ ~ ~ ~|
 !>![D,A,]2 !>![E,A,]2 !>!A,D !>![=G,B,]2 | A,6 [A,C]2 | !>![D,D]2 [D,B,]>[D,__B,] [D,A,]2 F,>G, | %6
w: ~ ~ ~ ~ ~|~ ~|~ ~ ~ ~ ~ ~|
 A,2 F,2 [D,A,]2 [C,A,]>[D,A,] | [E,A,]2 [E,A,]>[E,A,] [E,B,] [E,=G,]3 | (z2 E,C, A,,2) || z2 | %10
w: ing on, go- ing on|~ ~ ~ ~ ~|||
 z2 [D,D]>[D,D] [D,D]2 z2 | z2 [D,D]>[D,D] [D,D]2 [D,D]2 | [G,D]2 [G,D]>[G,D] [E,A,] [D,A,]3 | %13
w: ing on; ~|~ ~ ~ ~|~ ~ ~ ~ ~|
 [A,,A,]2 [C,A,][E,A,] [A,C]2 [A,C]2 | (DA,) [D,A,]>[D,A,] [D,D]2 [D,D]>[D,D] | %15
w: ~ ~ ~ ~ ~|~ * ~ go- ing~on. * *|
 [G,D]2 [F,=D]2 [E,B,E]2 [E,E]2 | [A,E]2 [A,E]>[A,E] [A,,E] [A,,C]3 | A,2 F,B, [D,A,]2 |] %18
w: |||
V:4
 A,2 | x6 F,>G, | A,2 F,2 D,2 F,>A, | x4 F,2 x2 | A,6 x2 | x6 F,>G, | A,2 F,2 x4 | x8 | [A,,A,]6 || %9
w: ~|~ ~|~ ~ ~ ~ ~|~|~|~ Go-|~ ~||go-|
 x2 | x8 | x8 | x8 | x8 | D,2 x6 | x8 | x8 | D,4- x2 |] %18
w: |||||||||

